X: 1
T: Moran's
M: 4/4
L: 1/8
R: hornpipe
K: Dmaj
|:A>G|(3FAF E>F D>EF>G|A>BG>B A2 d>e|f>dg>b a>ge>f|d>=cA>F G>BA>G|
(3FAF E>F D>EF>G|A>BG>B A2 d>e|f>dg>b a>ge>c|d2 d>c d2:|
a>g[|f>ef>g a>fd>e|f>d (3efg a2 a>b|a>ge>c d>fe>c|d>=cA>F G2 a>g|
f>ef>g a>fd>e|f>d (3efg a2 a>b|a>ge>f d>=cA>G|(3ABA d>c d2 a>g|
f>ef>g a>fd>e|f>d (3efg a2 a>b|a>ge>c d>fe>c|d>=cA>F G2 a>g|
(3FAF E>F D>EF>G|A>BG>B A2 d>e|f>dg>b a>ge>c|d2 d>c d2|]
